icons/icn_chevron.svg

<svg width="24" xmlns="http://www.w3.org/2000/svg" height="24" id="screenshot-796dcf21-9a76-80bf-8006-51d29dffef96" viewBox="0 0 24 24" xmlns:xlink="http://www.w3.org/1999/xlink" fill="none" version="1.1"><g id="shape-796dcf21-9a76-80bf-8006-51d29dffef96"><g class="frame-container-wrapper"><g class="frame-container-blur"><g class="frame-container-shadows"><g fill="none"><g class="fills" id="fills-796dcf21-9a76-80bf-8006-51d29dffef96"><rect rx="0" ry="0" x="0" y="0" width="24" height="24.000000000000455" transform="matrix(1, 0, 0, 1, 0, 0)" class="frame-background"/></g><g class="frame-children"><g id="shape-6b7f04f4-ed47-8061-8006-7fcad5b718e1" width="13.728" height="7.734" version="1.1" rx="0" ry="0" style="fill: rgb(0, 0, 0);"><g id="shape-6b7f04f4-ed47-8061-8006-7fcad5b718e2" style="opacity: 1;"><g class="fills" id="fills-6b7f04f4-ed47-8061-8006-7fcad5b718e2"><path d="M5.883593559265137,8.0028076171875C5.649462699890137,8.0018310546875,5.425585746765137,8.0953369140625,5.259081840515137,8.262451171875C4.913378715515137,8.6121826171875,4.913378715515137,9.1795654296875,5.259081840515137,9.5299072265625L11.379199028015137,15.7376708984375C11.724413871765137,16.08740234375,12.283495903015137,16.08740234375,12.628710746765137,15.7376708984375L18.741504669189453,9.5299072265625C19.086719512939453,9.1795654296875,19.086719512939453,8.6121826171875,18.741504669189453,8.262451171875C18.396045684814453,7.91259765625,17.836963653564453,7.91259765625,17.491748809814453,8.262451171875L12.003954887390137,13.8363037109375L6.508593559265137,8.262451171875C6.342089653015137,8.0953369140625,6.117968559265137,8.0018310546875,5.883593559265137,8.0028076171875Z" style="display: inline; stroke-linecap: round; stroke-linejoin: round; fill: rgb(0, 0, 0); fill-opacity: 1;"/></g></g></g></g></g></g></g></g></g></svg>

<svg fill="none" viewBox="0 0 24 24"><g class="frame-container-wrapper"><g class="frame-container-blur"><g class="frame-container-shadows"><g class="fills"><rect width="24" height="24" class="frame-background" rx="0" ry="0"/></g><g class="frame-children"><path fill="#000" d="M5.8836 8.0028a.8756.8756 0 0 0-.6245.2597c-.3457.3497-.3457.917 0 1.2674l6.1201 6.2078a.8752.8752 0 0 0 1.2495 0l6.1128-6.2078c.3452-.3503.3452-.9177 0-1.2674a.8753.8753 0 0 0-1.2498 0l-5.4877 5.5738-5.4954-5.5738a.8763.8763 0 0 0-.625-.2597Z" class="fills"/></g></g></g></g></svg>
